X: 38872
T: Sunny Arvo
R: jig
M: 6/8
K: Aminor
E|:EAc ~B2d|edB A2G|~A2G ABd|e2d e^fg|
age e=fd|edc B2d|ABc ded|1 BAA A2E:|2 BAA A2B||
|:cea daa|eaa faa|efe edc|edc B2d|
gfe e2A|fed dcB|ABc ded|1 BAA A2B:|2 BAA A3||

